assets/icons/bowtie/1.22/uE660-pin.svg

<svg xmlns="http://www.w3.org/2000/svg" viewBox="0 0 448 448" enable-background="new 0 0 448 448"><path d="M289.839 4.438l-11.313 11.313c-18.103 18.102-26.04 43.781-21.78 68.875l-81.359 81.359c-17.185-5.495-35.415-6.714-53.328-3.502-22.17 3.975-42.332 14.52-58.306 30.494l-11.314 11.314 83.501 83.501-129.065 129.521-6.875 30.687 31.969-7.656 128.268-128.254 83.471 83.471 11.313-11.313c15.975-15.974 26.52-36.136 30.494-58.306 3.212-17.914 1.991-36.145-3.503-53.329l81.36-81.36c25.1 4.26 50.775-3.678 68.875-21.779l11.313-11.313-153.721-153.723zm73.078 153.909l-9.15-2.741-109.348 109.347 4.326 9.982c10.734 24.774 8.117 52.458-6.189 74.22l-143.711-143.711c21.761-14.304 49.448-16.924 74.22-6.189l9.982 4.325 109.348-109.347-2.741-9.15c-3.383-11.296-2.466-23.134 2.22-33.355l104.399 104.399c-10.223 4.686-22.061 5.602-33.356 2.22z"/></svg>

<svg xmlns="http://www.w3.org/2000/svg" viewBox="0 0 448 448"><path d="M289.84 4.438L278.525 15.75c-18.103 18.103-26.04 43.782-21.78 68.876l-81.36 81.36c-17.184-5.496-35.414-6.715-53.327-3.503-22.17 3.975-42.333 14.52-58.307 30.494L52.44 204.29l83.5 83.502L6.875 417.312 0 448l31.97-7.656L160.236 312.09l83.47 83.47 11.314-11.312c15.976-15.974 26.52-36.136 30.495-58.306 3.212-17.914 1.99-36.145-3.503-53.33l81.36-81.36c25.1 4.26 50.775-3.677 68.875-21.778l11.313-11.313L289.84 4.44zm73.077 153.91l-9.15-2.742L244.42 264.953l4.325 9.982c10.734 24.774 8.117 52.458-6.19 74.22l-143.71-143.71c21.76-14.305 49.448-16.925 74.22-6.19l9.982 4.325L292.395 94.233l-2.74-9.15c-3.384-11.296-2.467-23.134 2.22-33.355l104.398 104.4c-10.223 4.685-22.06 5.6-33.356 2.22z"/></svg>
